!!!OTL: 453. Das zerbrochene Ringlein.
!!!COM: F. Glück
!!!ODT: 1814
!!!ARE: Europa, Mitteleuropa, Deutschland, Norddeutschland
!!!SCT: B0453
!!!TXL: @@DE
!!!YEM: Copyright 1995, estate of Helmut Schaffrath.
**kern	**text
*ICvox	*
*Ivox	*
*clefG2	*
*M6/8	*
*k[b-]	*
*F:	*
!LO:TX:a:t=Mäßig langsam.	!
{8c	Jn
=1	=1
4f	ei-
8f	-nem
8fL	küh-
8eJ	.
8f	-len
=2	=2
(4g	Grun-
8e)	.
4c}	-de
{8c	da
=3	=3
4f	geht
8f	ein
8gL	Müh-
8fJ	.
8g	-len-
=4	=4
[4.a	-rad
8a]	.
8r}	.
{8a	mein
=5	=5
8aL	Lieb-
8gJ	.
8g	-chen
8gL	iſt
8aJ	.
8b-	ver-
=6	=6
4.cc	-ſchwunden,
4d}	.
{8g	das
=7	=7
4f	dort
8f	ge-
8gL	-woh-
8fJ	.
8g	-net
=8	=8
[4.a	hat,
8a]	.
8r}	.
{8a	mein
=9	=9
8aL	Lieb-
8gJ	.
8g	-chen
8gL	iſt
8aJ	.
8b-	ver-
=10	=10
(4cc	-ſchwun-
8ff)	.
8ddL	-den,
8b-J}	.
{8g	das
=11	=11
4f	dort
8f	ge-
4a	-woh-
8g	-net
=12	=12
[4.a	hat.
8a]	.
8r}	.
==	==
!!!AGN: Liebes - Lied, Leid, Klage
!!!GTL: Liebeslieder - Liebesleid
!!!ONB: ESAC (Essen Associative Code) Database: BOEHME
!!!AMT: compound duple
!!!AIN: vox
!!!EED: Helmut Schaffrath
!!!EEV: 1.0
!!Mel. v. Friedt. Glück. 1814. Norddeutſche Lesart, vom Volke ʒurecht geſungen, notirt bei Erk*
!!@@COMMENT:"Gedicht von Joſeph v. Eichendorff 1809. Ʒuerſt gedr. in Deutſcher Dichterwald". Von
!!Juſtin. Kerner. Tübingen 1813, S. 40. Dann in Eichendorff's Roman Ahnung und Gegenwart".
!!Nürnberg 1815, S. 356; dort wird das Lied von einem Mädchen geſungen. - Die eigene, in ganʒ
!!Deutſchland geſungene Mel. hat Friedrich Glück 1814 als Tübinger Student componirt (4 1841
!!als Pfarrer). Nach derſelben Weiſe ſingt man auch Kerners Lied: "Dort unten in der Mühle" rc.
!!Von der Mel. giebts ʒwei abweichende Lesarten; die norddeutſche, vom Volke ʒurecht geſungen, iſt
!!jedenfalls muſikaliſch beſſer, als die ſüddeutſche, welche ʒweimal gleiche Halbkadenʒen (im
!!2. und 4. Takte) bringt, was Langweile erʒeugt. [...]"
!!@@END:
!!!Text: J. von Eichendorff
!!!URL-scan: https://archive.org/details/BoehmeVtLieder1895/page/n365/mode/2up
!!!ENC: Anna Maria Matuszewska
!!!EEV: 2024/09/07
*-	*-
